X:1
T:Schwäbisch in F
T:Schwäbisch in F-dur
T:Johann Christoph Friedrich Bach
T:Musikalische Nebenstunden Buch 1, Seite 31 
T:Public Domain
C:Johann Christoph Friedrich Bach
Z:Public Domain
%%score { ( 1 3 ) | 2 }
L:1/8
M:6/8
K:F
V:1 treble nm="Harpsichord" snm="Hch."
V:3 treble 
V:2 bass 
V:1
 F | FAG F2 c | cfd c2 F | FAG FAc | BAG F2 :: c | cfc BgB | AfA G2 C | CDE FAG | AGF c2 F | %10
 FAG F2 c | cfd c2 F | FAG FAc | BAG F2 :: c | f2 e d2 c | dcB A2 c | f2 e d2 c | BAG F2 :| %19
V:2
 F, | F,A,G, F,2 z | z2 z z2 F, | F,A,G, F,2 F,, | B,,2 C, F,2 :: z | C,2 z C,2 z | C,2 z C,2 z | %8
 C2 B, A,2 C | F,E,D, C,2 F, | F,A,G, F,2 z | z2 z z2 F, | F,A,G, F,2 F,, | B,,2 C, F,2 :: z | %15
 F,,F,F, F,,F,F, | E,2 C F,2 z | F,,F,F, F,,E,F, | B,,2 C, F,2 :| %19
V:3
 x | x6 | z2 B A2 z | z2 z z2 A | GFE F2 :: x | A2 A G2 G | F2 F E2 z | x6 | x6 | x6 | z2 B A2 z | %12
 z2 z z2 A | GFE F2 :: x | d2 c B2 A | BAG F2 z | d2 c B2 A | GFE F2 :| %19

